svgs/sharp-regular/list-ul.svg

<svg xmlns="http://www.w3.org/2000/svg" viewBox="0 0 512 512"><!--! Font Awesome Pro 6.6.0 by @fontawesome - https://fontawesome.com License - https://fontawesome.com/license (Commercial License) Copyright 2024 Fonticons, Inc. --><path d="M64 64a32 32 0 1 0 0 64 32 32 0 1 0 0-64zm120 8l-24 0 0 48 24 0 304 0 24 0 0-48-24 0L184 72zm0 160l-24 0 0 48 24 0 304 0 24 0 0-48-24 0-304 0zm0 160l-24 0 0 48 24 0 304 0 24 0 0-48-24 0-304 0zM96 256a32 32 0 1 0 -64 0 32 32 0 1 0 64 0zM64 384a32 32 0 1 0 0 64 32 32 0 1 0 0-64z"/></svg>

<svg xmlns="http://www.w3.org/2000/svg" viewBox="0 0 512 512"><!--! Font Awesome Pro 6.4.2 by @fontawesome - https://fontawesome.com License - https://fontawesome.com/license (Commercial License) Copyright 2023 Fonticons, Inc. --><path d="M64 64a32 32 0 1 0 0 64 32 32 0 1 0 0-64zm120 8H160v48h24H488h24V72H488 184zm0 160H160v48h24H488h24V232H488 184zm0 160H160v48h24H488h24V392H488 184zM96 256a32 32 0 1 0 -64 0 32 32 0 1 0 64 0zM64 384a32 32 0 1 0 0 64 32 32 0 1 0 0-64z"/></svg>
